src/assets/filled/Gift.svg

<svg width="24" height="24" viewBox="0 0 24 24"  xmlns="http://www.w3.org/2000/svg">
<path d="M20 12V18C20 20.21 18.21 22 16 22H8C5.79 22 4 20.21 4 18V12C4 11.45 4.45 11 5 11H6.97C7.52 11 7.97 11.45 7.97 12V15.14C7.97 15.88 8.38 16.56 9.03 16.91C9.32 17.07 9.64 17.15 9.97 17.15C10.35 17.15 10.73 17.04 11.06 16.82L12.01 16.2L12.89 16.79C13.5 17.2 14.28 17.25 14.93 16.9C15.59 16.55 16 15.88 16 15.13V12C16 11.45 16.45 11 17 11H19C19.55 11 20 11.45 20 12Z" />
<path d="M21.5 7V8C21.5 9.1 20.97 10 19.5 10H4.5C2.97 10 2.5 9.1 2.5 8V7C2.5 5.9 2.97 5 4.5 5H19.5C20.97 5 21.5 5.9 21.5 7Z" />
<path d="M11.64 4.99994H6.12003C5.78003 4.62994 5.79003 4.05994 6.15003 3.69994L7.57003 2.27994C7.94003 1.90994 8.55003 1.90994 8.92003 2.27994L11.64 4.99994Z" />
<path d="M17.8701 4.99994H12.3501L15.0701 2.27994C15.4401 1.90994 16.0501 1.90994 16.4201 2.27994L17.8401 3.69994C18.2001 4.05994 18.2101 4.62994 17.8701 4.99994Z" />
<path d="M13.9699 11C14.5199 11 14.9699 11.45 14.9699 12V15.13C14.9699 15.93 14.0799 16.41 13.4199 15.96L12.5199 15.36C12.1899 15.14 11.7599 15.14 11.4199 15.36L10.4799 15.98C9.81994 16.42 8.93994 15.94 8.93994 15.15V12C8.93994 11.45 9.38994 11 9.93994 11H13.9699Z" />
</svg>

<?xml version="1.0" encoding="UTF-8"?>
<svg width="24" height="24" viewBox="0 0 24 24" xmlns="http://www.w3.org/2000/svg">
 <path d="m20 12v6c0 2.21-1.79 4-4 4h-8c-2.21 0-4-1.79-4-4v-6c0-0.55 0.45-1 1-1h1.97c0.55 0 1 0.45 1 1v3.14c0 0.74 0.41 1.42 1.06 1.77 0.29 0.16 0.61 0.24 0.94 0.24 0.38 0 0.76-0.11 1.09-0.33l0.95-0.62 0.88 0.59c0.61 0.41 1.39 0.46 2.04 0.11 0.66-0.35 1.07-1.02 1.07-1.77v-3.13c0-0.55 0.45-1 1-1h2c0.55 0 1 0.45 1 1z"/>
 <path d="m21.5 7v1c0 1.1-0.53 2-2 2h-15c-1.53 0-2-0.9-2-2v-1c0-1.1 0.47-2 2-2h15c1.47 0 2 0.9 2 2z"/>
 <path d="m11.64 4.9999h-5.52c-0.34-0.37-0.33-0.94 0.03-1.3l1.42-1.42c0.37-0.37 0.98-0.37 1.35 0l2.72 2.72z"/>
 <path d="m17.87 4.9999h-5.52l2.72-2.72c0.37-0.37 0.98-0.37 1.35 0l1.42 1.42c0.36 0.36 0.37 0.93 0.03 1.3z"/>
 <path d="m13.97 11c0.55 0 1 0.45 1 1v3.13c0 0.8-0.89 1.28-1.55 0.83l-0.9-0.6c-0.33-0.22-0.76-0.22-1.1 0l-0.94 0.62c-0.65996 0.44-1.54-0.04-1.54-0.83v-3.15c0-0.55 0.45-1 1-1h4.03z"/>
</svg>
